img/masks/mask.svg

<svg width="686" height="611" viewBox="0 0 686 611" fill="none" xmlns="http://www.w3.org/2000/svg">
<path fill-rule="evenodd" clip-rule="evenodd" d="M330.302 14.1354C398.224 15.1475 467.971 -9.045 528.992 20.8016C595.739 53.4489 651.19 111.885 674.438 182.458C697.732 253.17 682.818 330.835 653.691 399.35C626.354 463.654 575.945 513.648 517.418 551.818C461.313 588.409 397.26 608.463 330.302 610.257C261.84 612.092 187.858 606.495 135.756 562.044C85.0485 518.784 84.5139 444.19 62.0793 381.426C38.7349 316.116 -10.2367 255.858 1.90462 187.572C14.6721 115.764 62.7711 48.8759 127.263 14.8157C188.611 -17.5839 260.932 13.1018 330.302 14.1354Z" fill="#C4C4C4"/>
</svg>

<svg width="686" height="611" fill="none" xmlns="http://www.w3.org/2000/svg"><path fill-rule="evenodd" clip-rule="evenodd" d="M330.302 14.135c67.922 1.013 137.669-23.18 198.69 6.667 66.747 32.647 122.198 91.083 145.446 161.656 23.294 70.712 8.38 148.377-20.747 216.892-27.337 64.304-77.746 114.298-136.273 152.468-56.105 36.591-120.158 56.645-187.116 58.439-68.462 1.835-142.444-3.762-194.546-48.213-50.707-43.26-51.242-117.854-73.677-180.618-23.344-65.31-72.316-125.568-60.174-193.854C14.672 115.764 62.77 48.876 127.263 14.816c61.348-32.4 133.669-1.714 203.039-.68z" fill="#C4C4C4"/></svg>
